icon-themes/sifr_svg/cmd/sc_leavegroup.svg

<svg viewBox="0 0 16 16" xmlns="http://www.w3.org/2000/svg"><path d="m0 0v3h3v-3zm12 0v1c0 .2653.0931.53058.28125.71875l.28125.28125h-5.5625v2h5.5625l-.28125.28125c-.18811.18818-.28129.45344-.28125.71875v1h1c.26529 0 .53057-.09304.71875-.28125l2-2 .28125-.28125v-.875l-.28125-.28125-2-2c-.18817-.18814-.45344-.28125-.71875-.28125zm-6.5 4c-1.9329966 0-3.5 1.5670034-3.5 3.5s1.5670034 3.5 3.5 3.5 3.5-1.5670034 3.5-3.5-1.5670034-3.5-3.5-3.5zm4.17 3c.33.1659206.33.332846.33.5 0 2.3-1.7244199 4.212381-4 4.466797v1.033203h6v-6h-2zm-9.67 6v3h3v-3zm13 0v3h3v-3z" fill="#555753"/></svg>

<svg xmlns="http://www.w3.org/2000/svg" viewBox="0 0 16 16">
  <path
     style="fill:#555753"
     d="M 0 0 L 0 3 L 3 3 L 3 0 L 0 0 z M 12 0 L 12 1 C 12 1.2653 12.0931 1.53058 12.28125 1.71875 L 12.5625 2 L 7 2 L 7 4 L 12.5625 4 L 12.28125 4.28125 C 12.09314 4.46943 11.99996 4.73469 12 5 L 12 6 L 13 6 C 13.26529 6 13.53057 5.90696 13.71875 5.71875 L 15.71875 3.71875 L 16 3.4375 L 16 2.5625 L 15.71875 2.28125 L 13.71875 0.28125 C 13.53058 0.09311 13.26531 0 13 0 L 12 0 z M 5.5 4 C 3.5670034 4 2 5.5670034 2 7.5 C 2 9.4329966 3.5670034 11 5.5 11 C 7.4329966 11 9 9.4329966 9 7.5 C 9 5.5670034 7.4329966 4 5.5 4 z M 9.67 7 C 10 7.1659206 10 7.332846 10 7.5 C 10 9.8 8.2755801 11.712381 6 11.966797 L 6 13 L 12 13 L 12 7 L 10 7 z M 0 13 L 0 16 L 3 16 L 3 13 L 0 13 z M 13 13 L 13 16 L 16 16 L 16 13 L 13 13 z "
     />
</svg>
